X: 22380
T: Lad O'Beirne's
R: reel
M: 4/4
K: Gmajor
DGGF G2 BG|c2 BG AGEG|DGGF GABd|e/f/g dg edge|
dB ~B2 GBdB|cE ~E2 GEDB,|DEGA B2 eB|1 dBAc BGGE:|2 dBAc BGGA||
|:Bdd^c d2 ef|g2 bg abge|dB ~B2 GBdB|cE ~E2 GEDB,|
B/^c/d dc d2 ef|g2 bg abge|DEGA B2 eB|dBAc BGGA:|

